src/data/flags/russia/omsk-oblast.svg

<svg height="300" width="450" xmlns="http://www.w3.org/2000/svg"><path d="m0 0h450v300h-450z" fill="#e00000"/><path d="m150 0h150v300h-150z" fill="#fff"/><path d="m200 0-2 6-2 6v6c0 10 8 23 8 33s-8 23-8 33 8 23 8 33-8 23-8 33 8 23 8 33-8 23-8 33 8 23 8 33-8 23-8 33c0 4 2 12 4 18h50c-2-6-4-14-4-18 0-10 8-23 8-33s-8-23-8-33 8-23 8-33-8-23-8-33 8-23 8-33-8-23-8-33 8-23 8-33-8-23-8-33c0-6 2-12 4-18z" fill="#00f"/></svg>

<?xml version="1.0" encoding="UTF-8"?>
<svg xmlns="http://www.w3.org/2000/svg" width="450" height="300">
<rect width="450" height="300" fill="#e00000"/>
<rect width="150" height="300" x="150" fill="#fff"/>
<path fill="#00f" d="M200,0
 198,6 196,12 196,18C196,28 204,41 204,51C204,61 196,74 196,84C196,94 204,107 204,117C204,127 196,140 196,150C196,160 204,173 204,183C204,193 196,206 196,216C196,226 204,239 204,249
 204,259 196,272 196,282C196,286 198,294 200,300
H250C248,294 246,286 246,282C246,272 254,259 254,249C254,239 246,226 246,216C246,206 254,193 254,183C254,173 246,160 246,150C246,140 254,127 254,117C254,107 246,94 246,84C246,74 254,61 254,51C254,41 246,28 246,18C246,12 248,6 250,0z"/>
</svg>
